**kern	**kern	**dynam
*part1	*part1	*part1
*staff2	*staff1	*
*I"Piano	*	*
*clefF4	*clefF4	*
*k[f#c#]	*k[f#c#]	*
=1	=1	=1
!	!	!LO:DY:a
1FFF# 1FF#	1F# 1A#X 1c#	p
=	=	=
!	!LO:TX:a:i:t=cresc.	!
1GGG 1GG	1E 1A#X 1c#	.
=	=	=
2GGG#X 2GG#X	2E 2G#X 2c#	.
2AAA 2AA	2E 2Gn 2c#	.
=	=	=
!	!	!LO:DY:a
[1AAA#X [1AA#X	[1E [1F# [1c#	fp
=	=	=
1AAA#] 1AA#]	1E] 1F#] 1c#]	.
=	=	=
!	!	!LO:DY:a
1BBB 1BB	1D#X 1F# [1B 1d#X	pp
=	=	=
*	*^	*
1FFF# 1FF#	(4B]	1E 1c#	.
.	4A#X	.	.
.	4G#X	.	.
.	4A#)	.	.
*	*v	*v	*
=	=	=
2.GGG#X 2.GG#X	2.D#X 2.B	.
!	!	!LO:DY:a
4FF##X^	4D#^ 4A#X	p
=	=	=
*-	*-	*-
!!!system-decoration: {(s1,s2)}
